assets/icons/traton/proportions_inactive.svg

<svg xmlns="http://www.w3.org/2000/svg" width="32" height="32" viewBox="0 0 32 32" fill="none">
<path d="M4.05095 5.47374L26.5557 27.9712L27.9702 26.5572L5.46548 4.05968L4.05095 5.47374ZM4 28H23.8023L21.8017 26H6.00065V10.2041L4 8.2041V28ZM8.00228 24H15.1228V22H10.0029V17.3057H8.00228V24ZM10.2286 6H25.9993V21.7656L28 23.7656V4H8.22794L10.2286 6ZM16.887 10H22.0068V14.6943H24.0075V8H16.887V10Z" fill="#001D21" />
</svg>

<svg xmlns="http://www.w3.org/2000/svg" fill="none" viewBox="0 0 32 32"><path fill="#001d21" d="M4 5.5 26.7 28l1.4-1.4L5.5 4zM4 28h19.8l-2-2H6V10.2l-2-2zm4-4h7.1v-2H10v-4.7H8zm2.2-18H26v15.8l2 2V4H8.2zm6.7 4H22v4.7h2V8H17z"/></svg>
